X:1
T: The Miller O' Hirn
C:J. Scott Skinner
R:Strathspey
Q: 128
K:D
M:4/4
L:1/16
|:D3E FB3 AF3 D4|B,3E GFED CA,3 A,3C|D3E FB3 AF3 D4|B,3D CA3 FD3 D4|
D3E FB3 AF3 D4|B,3E GFED CA,3 A,3C|D3E FB3 AF3 D4|B,3D CA3 FD3 D4|
A3G Fd3 BG3 G4|B3A ^Ge3 cA3 A3B|A3G Gd3 B3A GB3|c3B Aa3 fd3 d3B|
A3G Fd3 BG3 G4|B3A ^Ge3 cA3 A3B|((3d2A2B2) ((3c2d2e2) ((3f2d2e2) ((3f2g2a2) |((3b2a2g2) ((3f2e2d2) ((3c2B2A2) ((3G2F2E2) :|
